X: 42969
T: Willie Dear
R: jig
M: 6/8
K: Eminor
E2D EFA|B2A Bee|dBA BAF|AFE DEF|
E2D EFA|B2A Bee|dBA BAF|FED E3:|
|:e2e ede|fgf edB|AFF dBA|FAF FED|
E2e ede|fgf edB|AFF dBA|FED E3:|

